X:1
T:Breton Gavotte 3
M:4/4
L:1/8
Z:robin.beech@mcgill.ca
R:gavotte
K:D
f2 BB cd e2 | fa fe d2 B2 | f2 BB cd e2 | fa fe d2 B2 |:
f2 BB cd e2 | fa fe fg fe | (3ded BB cd e2 | fa fe d2 B2 :|
